logos/gunicorn.svg

<?xml version="1.0" encoding="UTF-8" standalone="no"?>
<svg width="256px" height="156px" viewBox="0 0 256 156" version="1.1" xmlns="http://www.w3.org/2000/svg" xmlns:xlink="http://www.w3.org/1999/xlink" preserveAspectRatio="xMidYMid">
    <defs>
        <linearGradient x1="73.7157622%" y1="4.10472321%" x2="8.17116312%" y2="50.0000007%" id="linearGradient-1">
            <stop stop-color="#959595" offset="0%"></stop>
            <stop stop-color="#CCCCCC" offset="100%"></stop>
        </linearGradient>
    </defs>
	<g>
		<path d="M255.853996,146.503324 C255.853996,151.498929 198.579129,155.548667 127.926999,155.548667 C57.2748699,155.548667 2.50956604e-06,151.498929 2.50956604e-06,146.503324 C1.14748336e-06,143.271734 24.3827487,140.285621 63.9634999,138.669826 C103.544251,137.054031 152.309748,137.054031 191.890499,138.669826 C231.47125,140.285621 255.853998,143.271734 255.853996,146.503324 L255.853996,146.503324 Z" opacity="0.26353838" fill="url(#linearGradient-1)"></path>
		<path d="M110.638677,150.145646 C108.162079,149.357291 108.153292,149.009169 110.434974,142.081472 C112.713593,135.163101 111.669325,128.738242 107.445385,123.688017 C101.701534,116.820528 98.9356367,110.960515 98.0540054,103.790811 C97.2971116,97.635455 97.0571934,97.1474671 94.5511362,96.6663218 C92.8703326,96.3436174 90.5482105,96.982732 85.0140295,99.2912361 C76.9623964,102.649841 75.0446965,104.124612 73.1447627,108.418983 C72.1466803,110.674921 72.0267164,112.026274 72.5928421,114.635809 C73.2841383,117.822229 76.1172884,122.951516 77.1898033,122.958388 C77.4696806,122.960313 79.0159495,124.019248 80.6259392,125.311865 C83.2974725,127.45677 83.4808493,127.829442 82.7248794,129.577874 C81.0823122,133.376924 77.1797173,137.98297 75.6034406,137.98297 C74.7190472,137.98297 71.1075224,135.453305 67.1321215,132.049294 C59.3236595,125.363181 58.9963838,124.692865 58.1898779,113.733495 C57.2275874,100.657179 60.4431398,94.554495 74.7645883,82.2768986 L83.7469931,74.5763994 L84.3206833,69.905458 C84.9121011,65.0902713 84.0783206,53.6245895 82.6764992,47.2956728 C81.8483392,43.5567254 79.1153083,39.9955826 76.5217299,39.2760205 C73.6960577,38.4920445 72.0395838,40.1095892 69.8899633,45.7519735 C67.5706226,51.8398364 65.3539994,53.9636547 61.3194683,53.9636547 C58.8065492,53.9636547 56.4614929,52.3561576 54.8422159,49.5236042 C53.68192,47.4939477 53.0083994,35.3005811 53.7020247,28.8820836 C54.0356812,25.79456 54.0548042,22.6685113 53.744563,21.9353023 C53.2396944,20.7422749 48.8921215,18.161535 38.6423146,12.9705768 C36.7790195,12.0269185 34.6067729,10.7563405 33.8151074,10.1470605 C33.0234514,9.53779008 30.9691573,8.41759759 29.2500114,7.6577588 C25.3560205,5.9366785 15.2029065,2.88721806e-05 16.1534171,2.88721806e-05 C17.9516439,2.88721806e-05 25.5722731,2.34550857 29.6291417,4.14759459 C32.1056722,5.24770165 34.4762995,6.14777263 34.8972078,6.14777263 C35.3181257,6.14777263 40.0926412,7.68471579 45.5072529,9.56320722 C50.9218743,11.4416794 55.8707777,12.9786226 56.5048205,12.9786226 C58.010803,12.9786226 58.2469582,11.6757269 57.7643789,6.02955068 C57.5451717,3.46470977 57.5548439,1.36619308 57.7859368,1.36619308 C58.0169624,1.36619308 59.0147561,1.86137985 60.0032241,2.4665985 C63.023129,4.31562105 69.5189462,5.44807459 77.1538093,5.45658226 C84.4541883,5.46524391 93.9832782,6.91314526 97.6252632,8.56822376 C102.849819,10.9424986 108.910099,18.3581546 116.597806,31.7839687 C121.942441,41.1178538 127.685205,45.0701666 135.915374,45.0788283 C139.242459,45.0826779 148.119163,43.7109221 160.13973,41.3363104 C170.051241,39.3783338 183.135644,38.9382544 188.214511,40.3920457 C194.410394,42.1655675 202.602856,46.9069089 209.376481,52.6394033 C215.716244,58.0047302 216.692663,59.1959098 220.587087,66.3156259 C225.234815,74.8124968 230.36442,86.8884499 234.925974,100.071815 C235.575954,101.950287 236.948778,105.110126 237.976705,107.093664 C240.719408,112.386069 240.582698,112.70887 235.598667,112.70887 C230.189098,112.70887 227.652109,111.855832 224.105961,108.84454 C220.704818,105.956379 219.816373,104.189421 214.49292,89.7258057 C211.766145,82.3173005 209.111771,77.8715814 207.415184,77.8715814 C206.252733,77.8715814 203.899842,85.8106033 203.899842,89.7330045 C203.899842,92.5188716 205.645647,96.2823699 210.159196,103.226591 C217.491489,114.50752 221.348543,130.454674 219.804632,143.106098 L219.137752,148.570774 L214.251164,148.774188 C206.557835,149.094458 206.634856,149.201391 206.634856,138.200416 C206.634856,126.488686 205.837243,123.952342 200.668891,119.229017 C198.522149,117.267123 193.705807,111.693079 189.965907,106.842254 C186.225978,101.99142 182.644413,98.022554 182.006857,98.022554 C180.541835,98.022554 179.811291,102.011611 179.733414,110.436437 C179.682214,115.984659 179.463699,116.923765 177.826772,118.633441 C173.389077,123.268369 170.274029,131.70791 168.353644,144.298885 C167.928578,147.085811 167.564153,147.607165 165.75765,148.0128 C163.10139,148.609232 155.740505,148.706868 155.106173,148.154091 C154.559122,147.677373 155.517756,140.1093 157.69236,127.736715 C158.517768,123.04051 159.418695,116.73906 159.694434,113.733495 C160.185309,108.38297 159.088243,98.3585107 157.789842,96.3304132 C157.249981,95.4871531 154.501012,95.3044307 141.643345,95.257215 C133.120624,95.2259368 123.773881,94.9455495 120.872833,94.6341823 L115.598155,94.0680469 L115.598155,96.4087531 C115.598155,98.9153107 116.240638,101.12462 120.536934,113.391947 C122.050067,117.712457 124.242707,124.299068 125.409471,128.028872 L127.530854,134.810341 L125.740711,140.324389 C124.756122,143.357113 123.294882,146.991139 122.493486,148.400005 C121.079981,150.884976 120.914226,150.959947 116.949787,150.907631 C114.702136,150.877989 111.862182,150.535074 110.638773,150.145646 L110.638677,150.145646 Z" fill="#499848"></path>
	</g>
</svg>

<svg preserveAspectRatio="xMidYMid" viewBox="0 0 256 156" xmlns="http://www.w3.org/2000/svg">
  <defs>
    <linearGradient id="gunicorn_svg__a" x1="73.716%" x2="8.171%" y1="4.105%" y2="50%">
      <stop offset="0%" stop-color="#959595"/>
      <stop offset="100%" stop-color="#CCC"/>
    </linearGradient>
  </defs>
  <path fill="url(#gunicorn_svg__a)" d="M255.854 146.503c0 4.996-57.275 9.046-127.927 9.046C57.275 155.549 0 151.499 0 146.503c0-3.231 24.383-6.217 63.963-7.833 39.581-1.616 88.347-1.616 127.927 0 39.581 1.616 63.964 4.602 63.964 7.833Z" opacity=".264"/>
  <path fill="#499848" d="M110.639 150.146c-2.477-.789-2.486-1.137-.204-8.065 2.279-6.918 1.234-13.343-2.99-18.393-5.743-6.867-8.51-12.727-9.391-19.897-.757-6.156-.997-6.644-3.503-7.125-1.68-.322-4.003.317-9.537 2.625-8.052 3.359-9.97 4.834-11.87 9.128-.997 2.256-1.117 3.607-.551 6.217.691 3.186 3.524 8.316 4.597 8.322.28.002 1.826 1.061 3.436 2.354 2.671 2.145 2.855 2.517 2.099 4.266-1.643 3.799-5.545 8.405-7.122 8.405-.884 0-4.495-2.53-8.47-5.934-7.81-6.686-8.137-7.356-8.943-18.316-.962-13.076 2.253-19.179 16.575-31.456l8.982-7.7.574-4.672c.591-4.815-.243-16.28-1.645-22.61-.828-3.738-3.56-7.3-6.154-8.019-2.826-.784-4.482.834-6.632 6.476-2.32 6.088-4.536 8.212-8.57 8.212-2.513 0-4.859-1.608-6.478-4.44-1.16-2.03-1.834-14.223-1.14-20.642.334-3.087.353-6.213.043-6.947-.505-1.193-4.853-3.773-15.103-8.964-1.863-.944-4.035-2.215-4.827-2.824-.792-.61-2.846-1.73-4.565-2.49C25.356 5.938 15.203 0 16.153 0c1.799 0 9.42 2.346 13.476 4.148 2.477 1.1 4.847 2 5.268 2 .421 0 5.196 1.537 10.61 3.415 5.415 1.879 10.364 3.416 10.998 3.416 1.506 0 1.742-1.303 1.26-6.95-.22-2.564-.21-4.663.02-4.663.232 0 1.23.495 2.218 1.1 3.02 1.85 9.516 2.982 17.15 2.99 7.301.01 16.83 1.457 20.472 3.112 5.225 2.374 11.285 9.79 18.973 23.216 5.344 9.334 11.087 13.286 19.317 13.295 3.327.004 12.204-1.368 24.225-3.743 9.911-1.958 22.996-2.398 28.075-.944 6.195 1.774 14.388 6.515 21.161 12.247 6.34 5.366 7.317 6.557 11.211 13.677 4.648 8.496 9.777 20.572 14.339 33.756.65 1.878 2.023 5.038 3.05 7.022 2.743 5.292 2.607 5.615-2.377 5.615-5.41 0-7.947-.853-11.493-3.864-3.401-2.889-4.29-4.656-9.613-19.12-2.727-7.408-5.381-11.853-7.078-11.853-1.162 0-3.515 7.939-3.515 11.861 0 2.786 1.746 6.55 6.26 13.494 7.331 11.28 11.189 27.228 9.645 39.88l-.667 5.464-4.887.203c-7.693.32-7.616.427-7.616-10.574 0-11.711-.798-14.248-5.966-18.971-2.147-1.962-6.963-7.536-10.703-12.387-3.74-4.85-7.322-8.82-7.96-8.82-1.464 0-2.195 3.99-2.273 12.414-.05 5.549-.27 6.488-1.906 8.197-4.438 4.635-7.553 13.075-9.473 25.666-.425 2.787-.79 3.308-2.596 3.714-2.657.596-10.017.694-10.652.141-.547-.477.412-8.045 2.586-20.417.826-4.696 1.727-10.998 2.002-14.004.491-5.35-.606-15.374-1.904-17.403-.54-.843-3.289-1.026-16.147-1.073-8.522-.031-17.87-.311-20.77-.623l-5.275-.566v2.34c0 2.507.643 4.717 4.939 16.984 1.513 4.32 3.706 10.907 4.872 14.637l2.122 6.781-1.79 5.514c-.985 3.033-2.446 6.667-3.248 8.076-1.413 2.485-1.579 2.56-5.543 2.508-2.248-.03-5.088-.373-6.311-.762Z"/>
</svg>
